svg/dresser.svg

<?xml version="1.0" encoding="UTF-8"?><!DOCTYPE svg PUBLIC "-//W3C//DTD SVG 1.1//EN" "http://www.w3.org/Graphics/SVG/1.1/DTD/svg11.dtd"><svg xmlns="http://www.w3.org/2000/svg" xmlns:xlink="http://www.w3.org/1999/xlink" version="1.1" id="mdi-dresser" width="24" height="24" viewBox="0 0 24 24"><path d="M4 3C2.9 3 2 3.9 2 5V8H22V5C22 3.9 21.11 3 20 3H4M10 5H14V6H10V5M2 9V14H22V9H2M10 11H14V12H10V11M2 15V18C2 19.11 2.9 20 4 20V21H6V20H18V21H20V20C21.11 20 22 19.11 22 18V15H2M10 17H14V18H10V17Z" /></svg>

<svg xmlns="http://www.w3.org/2000/svg" viewBox="0 0 24 24"><path d="M4 3c-1.1 0-2 .9-2 2v3h20V5a2 2 0 0 0-2-2zm6 2h4v1h-4zM2 9v5h20V9zm8 2h4v1h-4zm-8 4v3a2 2 0 0 0 2 2v1h2v-1h12v1h2v-1c1.11 0 2-.89 2-2v-3zm8 2h4v1h-4z"/></svg>
